packages/frontend/src/icons/help.svg

<svg width="30" height="30" viewBox="0 0 30 30" xmlns="http://www.w3.org/2000/svg"><path d="M15 3c6.627 0 12 5.373 12 12s-5.373 12-12 12S3 21.627 3 15 8.373 3 15 3zm0 2C9.477 5 5 9.477 5 15s4.477 10 10 10 10-4.477 10-10S20.523 5 15 5zm-.112 13.712c.336 0 .624.096.848.32.224.208.336.48.336.816 0 .336-.128.608-.352.832-.224.208-.512.32-.832.32-.32 0-.608-.112-.832-.336a1.11 1.11 0 0 1-.336-.816c0-.336.112-.608.336-.816.224-.224.512-.32.832-.32zm.288-9.36c1.024 0 1.856.272 2.496.848.64.56.96 1.328.96 2.288 0 .784-.208 1.44-.608 1.952-.144.176-.592.592-1.344 1.248a2.657 2.657 0 0 0-.672.832c-.176.32-.256.672-.256 1.056v.272H14.04v-.272c0-.592.096-1.104.32-1.52.208-.448.816-1.104 1.808-1.984l.272-.304c.288-.368.448-.752.448-1.168 0-.56-.16-.992-.464-1.312-.32-.32-.784-.48-1.36-.48-.72 0-1.248.224-1.568.688-.288.384-.432.928-.432 1.632h-1.68c0-1.168.336-2.08 1.008-2.752.672-.688 1.6-1.024 2.784-1.024z" fill="#8C8C8C" fill-rule="nonzero"/></svg>

<?xml version="1.0" encoding="UTF-8"?>
<svg width="30px" height="30px" viewBox="0 0 30 30" version="1.1" xmlns="http://www.w3.org/2000/svg" xmlns:xlink="http://www.w3.org/1999/xlink">
    <title>icon / 30 / 帮助</title>
    <g id="控件" stroke="none" stroke-width="1" fill="none" fill-rule="evenodd">
        <g id="icon-/-30-/-帮助">
            <rect id="矩形" fill="#D8D8D8" opacity="0" x="0" y="0" width="30" height="30"></rect>
            <path d="M15,3 C21.627417,3 27,8.372583 27,15 C27,21.627417 21.627417,27 15,27 C8.372583,27 3,21.627417 3,15 C3,8.372583 8.372583,3 15,3 Z M15,5 C9.4771525,5 5,9.4771525 5,15 C5,20.5228475 9.4771525,25 15,25 C20.5228475,25 25,20.5228475 25,15 C25,9.4771525 20.5228475,5 15,5 Z M14.888,18.712 C15.224,18.712 15.512,18.808 15.736,19.032 C15.96,19.24 16.072,19.512 16.072,19.848 C16.072,20.184 15.944,20.456 15.72,20.68 C15.496,20.888 15.208,21 14.888,21 C14.568,21 14.28,20.888 14.056,20.664 C13.832,20.44 13.72,20.168 13.72,19.848 C13.72,19.512 13.832,19.24 14.056,19.032 C14.28,18.808 14.568,18.712 14.888,18.712 Z M15.176,9.352 C16.2,9.352 17.032,9.624 17.672,10.2 C18.312,10.76 18.632,11.528 18.632,12.488 C18.632,13.272 18.424,13.928 18.024,14.44 C17.88,14.616 17.432,15.032 16.68,15.688 C16.376,15.944 16.152,16.232 16.008,16.52 C15.832,16.84 15.752,17.192 15.752,17.576 L15.752,17.576 L15.752,17.848 L14.04,17.848 L14.04,17.576 C14.04,16.984 14.136,16.472 14.36,16.056 C14.568,15.608 15.176,14.952 16.168,14.072 L16.168,14.072 L16.44,13.768 C16.728,13.4 16.888,13.016 16.888,12.6 C16.888,12.04 16.728,11.608 16.424,11.288 C16.104,10.968 15.64,10.808 15.064,10.808 C14.344,10.808 13.816,11.032 13.496,11.496 C13.208,11.88 13.064,12.424 13.064,13.128 L13.064,13.128 L11.384,13.128 C11.384,11.96 11.72,11.048 12.392,10.376 C13.064,9.688 13.992,9.352 15.176,9.352 Z" id="形状结合" fill="#8C8C8C" fill-rule="nonzero"></path>
        </g>
    </g>
</svg>
